X:1887
T:Vals från Spjutberg, Alkvettern efter Wilhelm Bergewing
R:Vals
S:Efter Wilhelm Bergewing
O:Alkvettern, Karlskoga, Värmland
B:
Z:ABC-transkribering av Per Saxholm
M:3/4
L:1/8
K:C
G2|G2e2e2|e2d2c2|c2B2B2|B4G2|G2f2f2|f2e2d2|d2cB cd|[Ec]4:|e2|g3f eg|c'g eg eg|c'g eg fe|d3f ed|cBcdef|g3f eg|c'g eg eg|c'g eg fe|d3f ed|[Ec]4:|| 
(:musicend:)
(:music:)
